svgs/boom_and_megaboom.svg

<svg width="192" height="192" viewBox="0 0 192 192" fill="none" xmlns="http://www.w3.org/2000/svg"><path d="M22 50v60c0 17.673 14.327 32 32 32v0c17.673 0 32-14.327 32-32V50" stroke="#000" stroke-width="12" stroke-linecap="round"/><path d="M170 50h-56v46m0 0v46h56m-56-46h52" stroke="#000" stroke-width="12" stroke-linecap="round" stroke-linejoin="round"/></svg>

<svg id="vector" xmlns="http://www.w3.org/2000/svg" width="192" height="192" viewBox="0 0 192 192"><path fill="#00000000" d="M22,50V110C22,127.673 36.327,142 54,142V142C71.673,142 86,127.673 86,110V50" stroke-width="12" stroke="#000000" stroke-linecap="round" id="path_0"/><path fill="#00000000" d="M170,50H114V96M114,96L114,142H170M114,96H166" stroke-linejoin="round" stroke-width="12" stroke="#000000" stroke-linecap="round" id="path_1"/></svg>
